X:1
T:Dean Brig Reel
T:Dean Brig Reel
T:Peter Milne
C:Peter Milne
L:1/8
M:4/4
K:Eb
V:1 treble 
V:1
{d} e | E/E/E (GB) cBGB | E/E/E (GB) c2 (ce) | E/E/E (GB) cBGB | ceBG F2 (FG) | E/E/E (GB) cBGB | %6
 EGAB cdef |{a} g^fg=f edec | BAGF (E2 E) || d | (ed)cd (cB)GB | eded c2 (cd) | (ed)cd (cB)GB | %13
 cBAG (F2 F)d | (ed)cd (cB)GB | (ed)fd (cd)ef | (gf)ag (fe)dc | BAGF (E2 E) || %18

